X:92
T:Le Native Quadrill. JBs.092
T:Life of a Man,The,aka. JBs.092
S:Jas.Blackshaw MS, 1837, N.Shropshire
A:North Shropshire
Z:T. Weatherall 2006
M:6/8
L:1/8
Q:3/8=110
R:Quadrille
K:G
B/c/|ded ded|g2dd2B/c/|ded ded|a2dd2B/c/|!
ded ded|g2da2d|bag ddâ€™câ€™|bgg g2:|!
|:g/a/|bag bag|bgdd2g/a/|bag bag |câ€™aa a2g/a/|!
bag bag|gdâ€™dâ€™dâ€™2câ€™|abg ddâ€™câ€™|agg g2:|

